src/assets/wordmark.svg

<svg width="325" height="31" viewBox="0 0 325 31" fill="none" xmlns="http://www.w3.org/2000/svg">
<g id="Wordmark" clip-path="url(#clip0)">
<g id="The">
<path id="T" d="M4.43396 25.9703L7.90019 9.78286H3.58939C1.26684 9.76526 0 8.70956 0 7.1436C0 6.33422 0.387091 4.36358 1.35482 3.37825C1.98824 2.74483 2.74483 2.41052 4.69788 2.41052H22.1698C24.4923 2.41052 25.7592 3.46623 25.7592 5.03219C25.7592 5.84156 25.3721 7.82981 24.4044 8.79753C23.7709 9.43096 23.0144 9.76526 21.0613 9.76526H16.3986L12.9324 26.0407C12.3341 28.6624 11.1553 29.982 8.70956 29.982H7.53069C5.20814 29.982 3.88851 28.5392 4.43396 25.9703Z" fill="white"/>
<path id="h" d="M37.5127 26.1287C37.5127 24.897 37.8119 23.683 38.4805 21.2197C38.9907 19.4074 39.2898 18.0525 39.2898 17.3663C39.2898 15.8004 38.4453 14.8326 36.8441 14.8326C35.4541 14.8326 34.5568 15.4309 33.677 16.6449L31.6536 26.0231C31.0553 28.9791 29.9996 29.9644 27.9234 29.9644H27.0789C24.8795 29.9644 22.9264 29.0319 23.5247 26.0231L28.2225 3.87092C28.856 0.967729 29.9117 0 31.9879 0H32.8325C35.0318 0 37.0201 0.879754 36.3339 3.88851L34.5568 12.3517C36.0699 9.94122 38.6212 8.28728 41.6124 8.28728C45.5009 8.28728 47.8235 10.9441 47.8235 14.8502C47.8235 16.3282 47.4012 18.1933 46.6446 20.903C46.0991 22.8912 45.6769 24.5451 45.6769 25.3897C45.6769 26.6213 46.2223 27.1668 47.3308 27.4131C47.4188 27.4131 46.6446 30.2987 42.5097 30.2987C38.9555 30.2811 37.5127 28.6272 37.5127 26.1287Z" fill="white"/>
<path id="e" d="M60.703 24.7739C63.1487 24.7739 65.137 23.507 66.3334 21.9763C66.3686 21.9411 69.5533 22.3634 69.5533 24.8619C69.5533 26.3047 69.131 27.0261 68.2513 27.9058C66.8965 29.2606 64.3276 30.3163 60.5974 30.3163C53.1547 30.3163 49.8116 26.3926 49.8116 21.0965C49.8116 13.4427 55.6884 8.28729 63.008 8.28729C68.7615 8.28729 71.8055 10.909 71.8055 14.8503C71.8055 19.2138 69.0607 21.7827 59.7881 21.7827C58.7323 21.7827 57.6239 21.7827 56.4098 21.6947C56.6561 23.683 58.1341 24.7739 60.703 24.7739ZM59.1018 17.208C63.7997 17.208 65.2425 16.3282 65.2425 15.0966C65.2425 14.2168 64.3628 13.4075 62.6209 13.4075C60.2631 13.4075 58.3101 15.0086 57.2544 17.1728C57.923 17.208 58.5564 17.208 59.1018 17.208Z" fill="white"/>
</g>
<g id="Name">
<path id="N" d="M79.7057 25.9703L83.9285 6.22864C84.5267 3.519 85.7936 2.21697 88.2393 2.21697H88.9959C90.773 2.21697 91.7055 2.76241 92.7612 4.5923L99.5705 16.944L101.858 6.15826C102.421 3.519 103.477 2.19937 105.922 2.19937H106.855C109.177 2.19937 110.356 3.64217 109.776 6.21105L105.588 26.0055C104.99 28.6624 103.723 29.982 101.312 29.982H100.82C99.0955 29.982 98.1629 29.4366 97.0544 27.6067L90.034 14.7974L87.6587 26.0407C87.1132 28.6624 86.0575 29.982 83.5942 29.982H82.6265C80.3391 29.982 79.1602 28.5392 79.7057 25.9703Z" fill="white"/>
<path id="a" d="M117.5 30.2811C112.978 30.2811 109.881 27.0261 109.881 21.9059C109.881 15.0086 114.438 8.28729 121.177 8.28729C123.834 8.28729 126.385 9.51895 127.599 11.9295C128.69 9.60692 130.432 8.63919 133.089 8.63919C134.655 8.63919 135.922 9.30781 135.887 9.60692L132.79 24.0701C132.245 26.5686 132.614 27.5363 134.11 27.9938C134.145 28.029 133.511 30.2811 129.834 30.2811C126.491 30.2811 124.925 28.5392 124.802 25.9703C123.377 28.504 120.755 30.2811 117.5 30.2811ZM122.602 14.4632C119.559 14.4632 117.658 17.4191 117.658 20.5159C117.658 22.5921 118.96 23.9821 120.878 23.9821C123.165 23.9821 125.066 22.293 125.611 19.6185L126.157 17.032C125.576 15.5189 124.468 14.4632 122.602 14.4632Z" fill="white"/>
<path id="m" d="M167.488 8.28729C171.288 8.28729 173.628 11.1201 173.628 14.8503C173.628 16.3282 173.206 18.1933 172.449 20.903C171.904 22.8912 171.482 24.5451 171.482 25.3897C171.482 26.6214 172.027 27.1668 173.136 27.4131C173.259 27.4131 172.467 30.2987 168.315 30.2987C164.813 30.2987 163.318 28.6448 163.318 26.1463C163.318 24.9146 163.617 23.7006 164.285 21.2373C164.796 19.425 165.095 18.0702 165.095 17.3839C165.095 15.818 164.215 14.8503 162.895 14.8503C161.804 14.8503 160.907 15.3605 159.974 16.5394C159.974 16.5042 157.986 26.0583 157.986 26.0583C157.353 29.0143 156.244 29.9996 154.186 29.9996H153.341C151.142 29.9996 149.189 29.1199 149.875 26.0583L151.476 18.4045C151.898 16.3282 151.089 14.8503 149.523 14.8503C148.344 14.8503 147.5 15.3605 146.602 16.4162L144.526 26.0583C143.928 29.0143 142.837 29.9996 140.725 29.9996H139.916C137.717 29.9996 135.764 29.0671 136.397 26.0583L139.986 9.14945C140.022 8.9735 141.042 8.63919 142.362 8.63919C144.438 8.63919 146.426 9.6949 146.725 12.5629C148.538 9.90604 150.948 8.28729 154.08 8.28729C157.001 8.28729 159.323 9.97642 159.992 12.7213C161.787 10.0644 164.145 8.28729 167.488 8.28729Z" fill="white"/>
<path id="e_2" d="M186.543 24.7739C188.989 24.7739 190.977 23.507 192.173 21.9763C192.209 21.9411 195.393 22.3634 195.393 24.8619C195.393 26.3047 194.971 27.0261 194.091 27.9058C192.736 29.2606 190.168 30.3163 186.437 30.3163C178.995 30.3163 175.652 26.3926 175.652 21.0965C175.652 13.4427 181.528 8.28729 188.848 8.28729C194.601 8.28729 197.645 10.909 197.645 14.8503C197.645 19.2138 194.901 21.7827 185.628 21.7827C184.572 21.7827 183.464 21.7827 182.25 21.6947C182.478 23.683 183.956 24.7739 186.543 24.7739ZM184.942 17.208C189.64 17.208 191.082 16.3282 191.082 15.0966C191.082 14.2168 190.203 13.4075 188.461 13.4075C186.103 13.4075 184.15 15.0086 183.094 17.1728C183.745 17.208 184.379 17.208 184.942 17.208Z" fill="white"/>
</g>
<g id="Game">
<path id="G" d="M218.32 30.3163C211.176 30.3163 206.777 25.7592 206.777 18.3869C206.777 9.50134 213.411 1.81229 222.982 1.81229C227.469 1.81229 230.812 3.16711 232.66 4.9794C233.68 6.03511 234.226 7.26676 234.226 8.44563C234.226 12.4573 229.193 12.4573 228.982 12.1758C227.891 10.4339 225.886 9.04386 223.229 9.04386C218.865 9.04386 215.364 12.8092 215.364 17.7534C215.276 21.4308 217.528 23.9645 221.065 23.9645C222.455 23.9645 223.563 23.5774 224.443 22.9088C225.252 22.2754 225.798 21.7651 226.308 20.2871H223.229C221.276 20.2871 220.273 19.4074 220.273 18.0877C220.273 17.4191 220.572 15.7124 221.364 14.9206C221.909 14.428 222.543 14.0761 224.161 14.0761H231.991C234.278 14.0761 235.123 15.3077 234.578 17.9294L232.167 29.1726C232.132 29.3838 231.076 29.982 229.581 29.982C227.627 29.982 226.202 29.1726 225.815 27.2372C224.161 29.1726 221.575 30.3163 218.32 30.3163Z" fill="white"/>
<path id="a_2" d="M244.22 30.2811C239.698 30.2811 236.601 27.026 236.601 21.9059C236.601 15.0086 241.158 8.28729 247.897 8.28729C250.554 8.28729 253.105 9.51895 254.319 11.9295C255.41 9.60692 257.152 8.63919 259.809 8.63919C261.375 8.63919 262.642 9.30781 262.606 9.60692L259.51 24.0701C258.964 26.5686 259.334 27.5363 260.829 27.9938C260.865 28.029 260.231 30.2811 256.554 30.2811C253.211 30.2811 251.645 28.5392 251.522 25.9703C250.096 28.504 247.475 30.2811 244.22 30.2811ZM249.322 14.4632C246.278 14.4632 244.378 17.4191 244.378 20.5159C244.378 22.5921 245.68 23.9821 247.598 23.9821C249.885 23.9821 251.785 22.293 252.331 19.6185L252.876 17.032C252.296 15.5189 251.187 14.4632 249.322 14.4632Z" fill="white"/>
<path id="m_2" d="M294.207 8.28729C298.008 8.28729 300.348 11.1201 300.348 14.8503C300.348 16.3282 299.926 18.1933 299.169 20.903C298.624 22.8912 298.201 24.5451 298.201 25.3897C298.201 26.6214 298.747 27.1668 299.855 27.4131C299.978 27.4131 299.187 30.2987 295.034 30.2987C291.533 30.2987 290.037 28.6448 290.037 26.1463C290.037 24.9146 290.336 23.7006 291.005 21.2373C291.515 19.425 291.814 18.0702 291.814 17.3839C291.814 15.818 290.934 14.8503 289.615 14.8503C288.524 14.8503 287.627 15.3605 286.694 16.5394C286.694 16.5042 284.706 26.0583 284.706 26.0583C284.072 29.0143 282.964 29.9996 280.905 29.9996H280.061C277.861 29.9996 275.908 29.1199 276.594 26.0583L278.196 18.4045C278.618 16.3282 277.809 14.8503 276.243 14.8503C275.064 14.8503 274.219 15.3605 273.322 16.4162L271.246 26.0583C270.647 29.0143 269.556 29.9996 267.445 29.9996H266.636C264.436 29.9996 262.483 29.0671 263.117 26.0583L266.706 9.14945C266.741 8.9735 267.762 8.63919 269.081 8.63919C271.158 8.63919 273.146 9.6949 273.445 12.5629C275.257 9.90604 277.668 8.28729 280.8 8.28729C283.72 8.28729 286.043 9.97642 286.712 12.7213C288.506 10.0644 290.864 8.28729 294.207 8.28729Z" fill="white"/>
<path id="e_3" d="M313.263 24.7739C315.708 24.7739 317.697 23.507 318.893 21.9763C318.928 21.9411 322.113 22.3634 322.113 24.8619C322.113 26.3047 321.691 27.0261 320.811 27.9058C319.456 29.2606 316.887 30.3163 313.157 30.3163C305.714 30.3163 302.371 26.3926 302.371 21.0965C302.371 13.4427 308.248 8.28729 315.568 8.28729C321.321 8.28729 324.365 10.909 324.365 14.8503C324.365 19.2138 321.62 21.7827 312.348 21.7827C311.292 21.7827 310.184 21.7827 308.969 21.6947C309.198 23.683 310.676 24.7739 313.263 24.7739ZM311.644 17.208C316.342 17.208 317.785 16.3282 317.785 15.0966C317.785 14.2168 316.905 13.4075 315.163 13.4075C312.805 13.4075 310.852 15.0086 309.796 17.1728C310.465 17.208 311.098 17.208 311.644 17.208Z" fill="white"/>
</g>
</g>
<defs>
<clipPath id="clip0">
<rect width="324.33" height="30.3163" fill="white"/>
</clipPath>
</defs>
</svg>

<svg width="325" height="31" fill="none" xmlns="http://www.w3.org/2000/svg"><g clip-path="url(#clip0)" fill="#fff"><path d="M4.434 25.97L7.9 9.783H3.59C1.266 9.765 0 8.71 0 7.143c0-.809.387-2.78 1.355-3.765.633-.633 1.39-.967 3.343-.967H22.17c2.322 0 3.59 1.055 3.59 2.621 0 .81-.388 2.798-1.356 3.766-.633.633-1.39.967-3.343.967H16.4l-3.467 16.276c-.598 2.621-1.777 3.941-4.222 3.941H7.53c-2.322 0-3.641-1.443-3.096-4.012zM37.513 26.129c0-1.232.299-2.446.968-4.91.51-1.812.809-3.167.809-3.853 0-1.566-.845-2.533-2.446-2.533-1.39 0-2.287.598-3.167 1.812l-2.023 9.378c-.599 2.956-1.654 3.941-3.73 3.941h-.845c-2.2 0-4.153-.932-3.554-3.94L28.223 3.87C28.855.968 29.912 0 31.988 0h.845c2.199 0 4.187.88 3.5 3.889l-1.776 8.463c1.513-2.41 4.064-4.065 7.055-4.065 3.889 0 6.212 2.657 6.212 6.563 0 1.478-.423 3.343-1.18 6.053-.545 1.988-.967 3.642-.967 4.487 0 1.231.545 1.777 1.654 2.023.088 0-.686 2.886-4.821 2.886-3.554-.018-4.997-1.672-4.997-4.17zM60.703 24.774c2.446 0 4.434-1.267 5.63-2.798.036-.035 3.22.387 3.22 2.886 0 1.443-.422 2.164-1.302 3.044-1.355 1.355-3.923 2.41-7.654 2.41-7.442 0-10.785-3.923-10.785-9.22 0-7.653 5.876-12.809 13.196-12.809 5.753 0 8.797 2.622 8.797 6.563 0 4.364-2.744 6.933-12.017 6.933-1.056 0-2.164 0-3.378-.088.246 1.988 1.724 3.079 4.293 3.079zm-1.601-7.566c4.698 0 6.14-.88 6.14-2.111 0-.88-.88-1.69-2.621-1.69-2.358 0-4.31 1.602-5.367 3.766.669.035 1.302.035 1.848.035z"/><g><path d="M79.706 25.97L83.928 6.23c.599-2.71 1.866-4.012 4.311-4.012h.757c1.777 0 2.71.545 3.765 2.375l6.81 12.352 2.287-10.786c.563-2.639 1.619-3.959 4.064-3.959h.933c2.322 0 3.501 1.443 2.921 4.012l-4.188 19.794c-.598 2.657-1.865 3.977-4.276 3.977h-.492c-1.724 0-2.657-.545-3.766-2.375l-7.02-12.81-2.375 11.244c-.546 2.621-1.602 3.941-4.065 3.941h-.968c-2.287 0-3.466-1.443-2.92-4.012zM117.5 30.281c-4.522 0-7.619-3.255-7.619-8.375 0-6.897 4.557-13.619 11.296-13.619 2.657 0 5.208 1.232 6.422 3.643 1.091-2.323 2.833-3.29 5.49-3.29 1.566 0 2.833.668 2.798.967L132.79 24.07c-.545 2.499-.176 3.466 1.32 3.924.035.035-.599 2.287-4.276 2.287-3.343 0-4.909-1.742-5.032-4.31-1.425 2.533-4.047 4.31-7.302 4.31zm5.102-15.818c-3.043 0-4.944 2.956-4.944 6.053 0 2.076 1.302 3.466 3.22 3.466 2.287 0 4.188-1.689 4.733-4.363l.546-2.587c-.581-1.513-1.689-2.569-3.555-2.569zM167.488 8.287c3.8 0 6.14 2.833 6.14 6.563 0 1.478-.422 3.343-1.179 6.053-.545 1.988-.967 3.642-.967 4.487 0 1.231.545 1.777 1.654 2.023.123 0-.669 2.886-4.821 2.886-3.502 0-4.997-1.654-4.997-4.153 0-1.231.299-2.445.967-4.909.511-1.812.81-3.167.81-3.853 0-1.566-.88-2.534-2.2-2.534-1.091 0-1.988.51-2.921 1.69 0-.036-1.988 9.518-1.988 9.518-.633 2.956-1.742 3.942-3.8 3.942h-.845c-2.199 0-4.152-.88-3.466-3.942l1.601-7.654c.422-2.076-.387-3.554-1.953-3.554-1.179 0-2.023.51-2.921 1.566l-2.076 9.642c-.598 2.956-1.689 3.942-3.801 3.942h-.809c-2.199 0-4.152-.933-3.519-3.942l3.589-16.909c.036-.175 1.056-.51 2.376-.51 2.076 0 4.064 1.056 4.363 3.924 1.813-2.657 4.223-4.276 7.355-4.276 2.921 0 5.243 1.69 5.912 4.434 1.795-2.657 4.153-4.434 7.496-4.434zM186.543 24.774c2.446 0 4.434-1.267 5.63-2.798.036-.035 3.22.387 3.22 2.886 0 1.443-.422 2.164-1.302 3.044-1.355 1.355-3.923 2.41-7.654 2.41-7.442 0-10.785-3.923-10.785-9.22 0-7.653 5.876-12.809 13.196-12.809 5.753 0 8.797 2.622 8.797 6.563 0 4.364-2.744 6.933-12.017 6.933-1.056 0-2.164 0-3.378-.088.228 1.988 1.706 3.079 4.293 3.079zm-1.601-7.566c4.698 0 6.14-.88 6.14-2.111 0-.88-.879-1.69-2.621-1.69-2.358 0-4.311 1.602-5.367 3.766.651.035 1.285.035 1.848.035z"/></g><g><path d="M218.32 30.316c-7.144 0-11.543-4.557-11.543-11.93 0-8.885 6.634-16.574 16.205-16.574 4.487 0 7.83 1.355 9.678 3.167 1.02 1.056 1.566 2.288 1.566 3.467 0 4.011-5.033 4.011-5.244 3.73-1.091-1.742-3.096-3.132-5.753-3.132-4.364 0-7.865 3.765-7.865 8.71-.088 3.677 2.164 6.21 5.701 6.21 1.39 0 2.498-.387 3.378-1.055.809-.634 1.355-1.144 1.865-2.622h-3.079c-1.953 0-2.956-.88-2.956-2.2 0-.668.299-2.375 1.091-3.166.545-.493 1.179-.845 2.797-.845h7.83c2.287 0 3.132 1.232 2.587 3.853l-2.411 11.244c-.035.21-1.091.809-2.586.809-1.954 0-3.379-.81-3.766-2.745-1.654 1.936-4.24 3.08-7.495 3.08zM244.22 30.281c-4.522 0-7.619-3.255-7.619-8.375 0-6.897 4.557-13.619 11.296-13.619 2.657 0 5.208 1.232 6.422 3.643 1.091-2.323 2.833-3.29 5.49-3.29 1.566 0 2.833.668 2.797.967L259.51 24.07c-.546 2.499-.176 3.466 1.319 3.924.036.035-.598 2.287-4.275 2.287-3.343 0-4.909-1.742-5.032-4.31-1.426 2.533-4.047 4.31-7.302 4.31zm5.102-15.818c-3.044 0-4.944 2.956-4.944 6.053 0 2.076 1.302 3.466 3.22 3.466 2.287 0 4.187-1.689 4.733-4.363l.545-2.587c-.58-1.513-1.689-2.569-3.554-2.569zM294.207 8.287c3.801 0 6.141 2.833 6.141 6.563 0 1.478-.422 3.343-1.179 6.053-.545 1.988-.968 3.642-.968 4.487 0 1.231.546 1.777 1.654 2.023.123 0-.668 2.886-4.821 2.886-3.501 0-4.997-1.654-4.997-4.153 0-1.231.299-2.445.968-4.909.51-1.812.809-3.167.809-3.853 0-1.566-.88-2.534-2.199-2.534-1.091 0-1.988.51-2.921 1.69 0-.036-1.988 9.518-1.988 9.518-.634 2.956-1.742 3.942-3.801 3.942h-.844c-2.2 0-4.153-.88-3.467-3.942l1.602-7.654c.422-2.076-.387-3.554-1.953-3.554-1.179 0-2.024.51-2.921 1.566l-2.076 9.642c-.599 2.956-1.69 3.942-3.801 3.942h-.809c-2.2 0-4.153-.933-3.519-3.942l3.589-16.909c.035-.175 1.056-.51 2.375-.51 2.077 0 4.065 1.056 4.364 3.924 1.812-2.657 4.223-4.276 7.355-4.276 2.92 0 5.243 1.69 5.912 4.434 1.794-2.657 4.152-4.434 7.495-4.434zM313.263 24.774c2.445 0 4.434-1.267 5.63-2.798.035-.035 3.22.387 3.22 2.886 0 1.443-.422 2.164-1.302 3.044-1.355 1.355-3.924 2.41-7.654 2.41-7.443 0-10.786-3.923-10.786-9.22 0-7.653 5.877-12.809 13.197-12.809 5.753 0 8.797 2.622 8.797 6.563 0 4.364-2.745 6.933-12.017 6.933-1.056 0-2.164 0-3.379-.088.229 1.988 1.707 3.079 4.294 3.079zm-1.619-7.566c4.698 0 6.141-.88 6.141-2.111 0-.88-.88-1.69-2.622-1.69-2.358 0-4.311 1.602-5.367 3.766.669.035 1.302.035 1.848.035z"/></g></g><defs><clipPath id="clip0"><path fill="#fff" d="M0 0h324.33v30.316H0z"/></clipPath></defs></svg>
